X: 4
T:Miss Bakers Hornpipe. VWMLa.090
S:ChristopherGeorge Partington" <ChrisTheFiddlerPartington:Hotmail.com> tradtunes 2005-7-12
M:C|
L:1/8
Q:160
S:Anon.MS,Late 18thC,Yorkshire.
R:Hornpipe
O:England
A:Yorkshire
N:triplets not marked as such..
H:Cupboard, Vaughan Williams Memorial Library
Z:vmp/efdss.  Simon Wilson..
K:F
|: ((3dcB) | A2F2-FAGF | EGB2-BdcB | Acde fcdB | A2F2-F2 :|
|: ((3cde) | fcAc fagf | gece gbag | afge fdaf | e2c2-c2(fe) |
((3efg) ((3ABc) B2ba | gfed {d}c2BA | ((3Bcd) ((3GAB) DdcB | A2F2-F2 :|]
